public/images/poses-lg/BalancingStick.svg

<svg width="800" height="800" fill="none" xmlns="http://www.w3.org/2000/svg"><path d="M423.014 458.461c-1.147 36.165-2.954 39.376-2.954 39.376.547 1.93.821 7.571.986 9.828 1.356 18.33-3.292 40.17-5.169 55.244-3.455 27.745-4.817 46.524-10.397 72.055-8.559 39.153-16.211 75.974-13.138 115.796.447 5.767-.284 11.965 5.74 19.375 6.004 7.384 34.786 10.518 49.878 15.94 3.548 1.276 1.93 6.893-1.838 6.967l-67.38.956c-5.779.112-10.548-4.454-10.715-10.231-.958-33.003.51-44.379-3.32-98.588-1.789-25.316-1.373-27.743-.738-50.215.524-18.522.069-41.881.87-60.272.817-18.749-8.594-71.976-1.773-98.761" fill="#fff"/><path d="M423.014 458.461c-1.147 36.165-2.954 39.376-2.954 39.376.547 1.93.821 7.571.986 9.828 1.356 18.33-3.292 40.17-5.169 55.244-3.455 27.745-4.817 46.524-10.397 72.055-8.559 39.153-16.211 75.974-13.138 115.796.447 5.767-.284 11.965 5.74 19.375 6.004 7.384 34.786 10.518 49.878 15.94 3.548 1.276 1.93 6.893-1.838 6.967l-67.38.956c-5.779.112-10.548-4.454-10.715-10.231-.958-33.003.51-44.379-3.32-98.588-1.789-25.316-1.373-27.743-.738-50.215.524-18.522.069-41.881.87-60.272.817-18.749-8.594-71.976-1.773-98.761" stroke="#000" stroke-width="5" stroke-miterlimit="10"/><path d="M423.014 458.461c-1.147 36.165-2.954 39.376-2.954 39.376.547 1.93.821 7.571.986 9.828 1.356 18.33-3.292 40.17-5.169 55.244-3.455 27.745-4.817 46.524-10.397 72.055-8.559 39.153-16.211 75.974-13.138 115.796.447 5.767-.284 11.965 5.74 19.375 6.004 7.384 34.786 10.518 49.878 15.94 3.548 1.276 1.93 6.893-1.838 6.967l-67.38.956c-5.779.112-10.548-4.454-10.715-10.231-.958-33.003.51-44.379-3.32-98.588-1.789-25.316-1.373-27.743-.738-50.215.524-18.522.069-41.881.87-60.272.817-18.749-8.594-71.976-1.773-98.761" stroke="#000" stroke-width="5" stroke-miterlimit="10"/><path d="m591.428 463.051 32.008 10.036-17.364 18.201c-12.937-3.701-29.055-2.783-41.63-.263-12.573 2.523-28.778 14.357-38.371 22.567-9.595 8.211-25.65 10.203-32.946 5.52-7.3-4.686-9.409-8.976-25.978-10.417-16.572-1.44-47.133-1.378-47.133-1.378-2.41-7.302-.861-22.332.151-32.882.96-9.98 4.097-23.139 4.097-23.139 19.963 2.555 56.185 3.817 80.787 4.211 17.094.273 36.341-3 49.831-.984 6.302.94 19.319 1.847 26.225 4.913a68.557 68.557 0 0 0 10.323 3.615Z" fill="#fff" stroke="#000" stroke-width="5" stroke-miterlimit="10"/><path d="m591.428 463.051 32.008 10.036-17.364 18.201c-12.937-3.701-29.055-2.783-41.63-.263-12.573 2.523-28.778 14.357-38.371 22.567-9.595 8.211-25.65 10.203-32.946 5.52-7.3-4.686-9.409-8.976-25.978-10.417-16.572-1.44-47.133-1.378-47.133-1.378-2.41-7.302-.861-22.332.151-32.882.96-9.98 4.097-23.139 4.097-23.139 19.963 2.555 56.185 3.817 80.787 4.211 17.094.273 36.341-3 49.831-.984 6.302.94 19.319 1.847 26.225 4.913a68.557 68.557 0 0 0 10.323 3.615Z" stroke="#000" stroke-width="5" stroke-miterlimit="10"/><path d="M77.686 507.719c4.842-2.021 38.221-3.885 63.129-2.344 24.906 1.542 109.662 8.6 130.821 9.149 21.158.549 78.712 1.592 106.388-1.133 27.678-2.721 41.989-6.075 41.989-6.075-3.165-15.198.922-42.622 4.248-56.019 0 0-6.771-.872-12.489-2.233-5.718-1.36-23.225-10.259-39.25-11.833-16.023-1.574-34.117 3.432-44.842 7.717-10.724 4.284-35.615 16.298-57.342 19.212-21.727 2.912-52.951 2.925-67.728 3.836-14.779.911-43.263 6.308-61.047 9.162-15.919 2.555-56.22 8.435-69.343 10.35-2.002.294-4.017-.052-5.856-.899-2.81-1.29-7.531-2.484-11.39 1.374-5.903 5.904-13.776 13.776-19.68 15.745-5.905 1.969-19.682 3.936-23.618 11.809-1.762 3.521-3.936 7.872 3.936 11.808 7.873 3.937 62.074-19.626 62.074-19.626Z" fill="#fff" stroke="#000" stroke-width="5" stroke-miterlimit="10"/><path d="M77.686 507.719c4.842-2.021 38.221-3.885 63.129-2.344 24.906 1.542 109.662 8.6 130.821 9.149 21.158.549 78.712 1.592 106.388-1.133 27.678-2.721 41.989-6.075 41.989-6.075-3.165-15.198.922-42.622 4.248-56.019 0 0-6.771-.872-12.489-2.233-5.718-1.36-23.225-10.259-39.25-11.833-16.023-1.574-34.117 3.432-44.842 7.717-10.724 4.284-35.615 16.298-57.342 19.212-21.727 2.912-52.951 2.925-67.728 3.836-14.779.911-43.263 6.308-61.047 9.162-15.919 2.555-56.22 8.435-69.343 10.35-2.002.294-4.017-.052-5.856-.899-2.81-1.29-7.531-2.484-11.39 1.374-5.903 5.904-13.776 13.776-19.68 15.745-5.905 1.969-19.682 3.936-23.618 11.809-1.762 3.521-3.936 7.872 3.936 11.808 7.873 3.937 62.074-19.626 62.074-19.626Z" stroke="#000" stroke-width="5" stroke-miterlimit="10"/><path d="M91.627 484.67c-.172 8.193 2.71 21.027 2.71 21.027M548.48 497.574c-5.505-10.803-.409-34.445 2.687-43.459" stroke="#000" stroke-width="5" stroke-miterlimit="10"/><path d="M618.623 465.169c5.839-4.038 12.163-1.651 19.743-3.53 12.036-2.987 25.409 10.79 25.866 24.64.605 18.29-64.321 25.047-66.395 14.608-1.228-6.182 3.006-18.033 12.62-27.241 3.087-2.963 8.166-8.477 8.166-8.477Z" fill="#fff" stroke="#000" stroke-width="5" stroke-miterlimit="10"/><path d="M618.623 465.169c5.839-4.038 12.163-1.651 19.743-3.53 12.036-2.987 25.409 10.79 25.866 24.64.605 18.29-64.321 25.047-66.395 14.608-1.228-6.182 3.006-18.033 12.62-27.241 3.087-2.963 8.166-8.477 8.166-8.477Z" stroke="#000" stroke-width="5" stroke-miterlimit="10"/><path d="M657.336 494.578c-11.427.789-32.815-5.747-30.359-20.4 2.763-16.468-6.273-9.043-9.192-7.509-2.92 1.535-7.943 9.87-8.948 8.345-1.007-1.53 5.226-24.469 21.48-28.129 16.25-3.659 25.177-.419 31.005 7.657 5.828 8.077 8.29 25.713 3.797 34.689-4.493 8.977-7.783 5.347-7.783 5.347Z" fill="#100200" stroke="#000" stroke-width="5" stroke-miterlimit="10"/><path d="M640.829 452.312c-4.223-6.685-9.176-25.084 12.148-24.688 17.513.323 14.5-6.737 27.95-12.605 10.813-4.714 22.786 7.195 15.134 30.099-6.969 20.841-18.131 13.115-31.45 7.601-13.322-5.513-23.782-.407-23.782-.407Z" fill="#100200" stroke="#000" stroke-width="5" stroke-miterlimit="10"/><path d="M533.23 484.048s87.177 10.18 108.437 8.546c21.256-1.634 93.856-19.823 93.856-19.823 13.697-2.472 24.858.697 40.465-6.301 15.605-6.996 13.777-8.771 11.831-10.436-1.944-1.665-41.046-6.846-52.925 1.926-3.91 2.886-4.68 2.872-7.123 3.715l-89.909 8.109c-44.398-11.01-88.844-18.14-116.443-11.322" fill="#fff"/><path d="M533.23 484.048s87.177 10.18 108.437 8.546c21.256-1.634 93.856-19.823 93.856-19.823 13.697-2.472 24.858.697 40.465-6.301 15.605-6.996 13.777-8.771 11.831-10.436-1.944-1.665-41.046-6.846-52.925 1.926-3.91 2.886-4.68 2.872-7.123 3.715l-89.909 8.109c-44.398-11.01-88.844-18.14-116.443-11.322" stroke="#000" stroke-width="5" stroke-miterlimit="10"/><path d="M533.23 484.048s87.177 10.18 108.437 8.546c21.256-1.634 93.856-19.823 93.856-19.823 13.697-2.472 24.858.697 40.465-6.301 15.605-6.996 13.777-8.771 11.831-10.436-1.944-1.665-41.046-6.846-52.925 1.926-3.91 2.886-4.68 2.872-7.123 3.715l-89.909 8.109c-44.398-11.01-88.844-18.14-116.443-11.322" stroke="#000" stroke-width="5" stroke-miterlimit="10"/><path d="M367.363 738.281s10.723 5.575 24.331-1.32Z" fill="#fff"/><path d="M367.363 738.281s10.723 5.575 24.331-1.32" stroke="#000" stroke-width="5" stroke-miterlimit="10"/><path d="M367.363 738.281s10.723 5.575 24.331-1.32" stroke="#000" stroke-width="5" stroke-miterlimit="10"/></svg>

<svg width="800" height="800" viewBox="0 0 800 800" fill="none" xmlns="http://www.w3.org/2000/svg">
<path d="M423.014 458.461C421.867 494.626 420.06 497.837 420.06 497.837C420.607 499.767 420.881 505.408 421.046 507.665C422.402 525.995 417.754 547.835 415.877 562.909C412.422 590.654 411.06 609.433 405.48 634.964C396.921 674.117 389.269 710.938 392.342 750.76C392.789 756.527 392.058 762.725 398.082 770.135C404.086 777.519 432.868 780.653 447.96 786.075C451.508 787.351 449.89 792.968 446.122 793.042L378.742 793.998C372.963 794.11 368.194 789.544 368.027 783.767C367.069 750.764 368.537 739.388 364.707 685.179C362.918 659.863 363.334 657.436 363.969 634.964C364.493 616.442 364.038 593.083 364.839 574.692C365.656 555.943 356.245 502.716 363.066 475.931" fill="white"/>
<path d="M423.014 458.461C421.867 494.626 420.06 497.837 420.06 497.837C420.607 499.767 420.881 505.408 421.046 507.665C422.402 525.995 417.754 547.835 415.877 562.909C412.422 590.654 411.06 609.433 405.48 634.964C396.921 674.117 389.269 710.938 392.342 750.76C392.789 756.527 392.058 762.725 398.082 770.135C404.086 777.519 432.868 780.653 447.96 786.075C451.508 787.351 449.89 792.968 446.122 793.042L378.742 793.998C372.963 794.11 368.194 789.544 368.027 783.767C367.069 750.764 368.537 739.388 364.707 685.179C362.918 659.863 363.334 657.436 363.969 634.964C364.493 616.442 364.038 593.083 364.839 574.692C365.656 555.943 356.245 502.716 363.066 475.931" stroke="black" stroke-width="5" stroke-miterlimit="10"/>
<path d="M423.014 458.461C421.867 494.626 420.06 497.837 420.06 497.837C420.607 499.767 420.881 505.408 421.046 507.665C422.402 525.995 417.754 547.835 415.877 562.909C412.422 590.654 411.06 609.433 405.48 634.964C396.921 674.117 389.269 710.938 392.342 750.76C392.789 756.527 392.058 762.725 398.082 770.135C404.086 777.519 432.868 780.653 447.96 786.075C451.508 787.351 449.89 792.968 446.122 793.042L378.742 793.998C372.963 794.11 368.194 789.544 368.027 783.767C367.069 750.764 368.537 739.388 364.707 685.179C362.918 659.863 363.334 657.436 363.969 634.964C364.493 616.442 364.038 593.083 364.839 574.692C365.656 555.943 356.245 502.716 363.066 475.931" stroke="black" stroke-width="5" stroke-miterlimit="10"/>
<path d="M591.428 463.051L623.436 473.087L606.072 491.288C593.135 487.587 577.017 488.505 564.442 491.025C551.869 493.548 535.664 505.382 526.071 513.592C516.476 521.803 500.421 523.795 493.125 519.112C485.825 514.426 483.716 510.136 467.147 508.695C450.575 507.255 420.014 507.317 420.014 507.317C417.604 500.015 419.153 484.985 420.165 474.435C421.125 464.455 424.262 451.296 424.262 451.296C444.225 453.851 480.447 455.113 505.049 455.507C522.143 455.78 541.39 452.507 554.88 454.523C561.182 455.463 574.199 456.37 581.105 459.436C584.442 460.917 587.896 462.119 591.428 463.051Z" fill="white" stroke="black" stroke-width="5" stroke-miterlimit="10"/>
<path d="M591.428 463.051L623.436 473.087L606.072 491.288C593.135 487.587 577.017 488.505 564.442 491.025C551.869 493.548 535.664 505.382 526.071 513.592C516.476 521.803 500.421 523.795 493.125 519.112C485.825 514.426 483.716 510.136 467.147 508.695C450.575 507.255 420.014 507.317 420.014 507.317C417.604 500.015 419.153 484.985 420.165 474.435C421.125 464.455 424.262 451.296 424.262 451.296C444.225 453.851 480.447 455.113 505.049 455.507C522.143 455.78 541.39 452.507 554.88 454.523C561.182 455.463 574.199 456.37 581.105 459.436C584.442 460.917 587.896 462.119 591.428 463.051Z" stroke="black" stroke-width="5" stroke-miterlimit="10"/>
<path d="M77.6859 507.719C82.5285 505.698 115.907 503.834 140.815 505.375C165.721 506.917 250.477 513.975 271.636 514.524C292.794 515.073 350.348 516.116 378.024 513.391C405.702 510.67 420.013 507.316 420.013 507.316C416.848 492.118 420.935 464.694 424.261 451.297C424.261 451.297 417.49 450.425 411.772 449.064C406.054 447.704 388.547 438.805 372.522 437.231C356.499 435.657 338.405 440.663 327.68 444.948C316.956 449.232 292.065 461.246 270.338 464.16C248.611 467.072 217.387 467.085 202.61 467.996C187.831 468.907 159.347 474.304 141.563 477.158C125.644 479.713 85.3436 485.593 72.2197 487.508C70.2181 487.802 68.203 487.456 66.3644 486.609C63.5534 485.319 58.8326 484.125 54.9748 487.983C49.071 493.887 41.1975 501.759 35.2936 503.728C29.3887 505.697 15.6124 507.664 11.6762 515.537C9.914 519.058 7.73993 523.409 15.6124 527.345C23.4849 531.282 77.6859 507.719 77.6859 507.719Z" fill="white" stroke="black" stroke-width="5" stroke-miterlimit="10"/>
<path d="M77.6859 507.719C82.5285 505.698 115.907 503.834 140.815 505.375C165.721 506.917 250.477 513.975 271.636 514.524C292.794 515.073 350.348 516.116 378.024 513.391C405.702 510.67 420.013 507.316 420.013 507.316C416.848 492.118 420.935 464.694 424.261 451.297C424.261 451.297 417.49 450.425 411.772 449.064C406.054 447.704 388.547 438.805 372.522 437.231C356.499 435.657 338.405 440.663 327.68 444.948C316.956 449.232 292.065 461.246 270.338 464.16C248.611 467.072 217.387 467.085 202.61 467.996C187.831 468.907 159.347 474.304 141.563 477.158C125.644 479.713 85.3436 485.593 72.2197 487.508C70.2181 487.802 68.203 487.456 66.3644 486.609C63.5534 485.319 58.8326 484.125 54.9748 487.983C49.071 493.887 41.1975 501.759 35.2936 503.728C29.3887 505.697 15.6124 507.664 11.6762 515.537C9.914 519.058 7.73993 523.409 15.6124 527.345C23.4849 531.282 77.6859 507.719 77.6859 507.719Z" stroke="black" stroke-width="5" stroke-miterlimit="10"/>
<path d="M91.6274 484.67C91.455 492.863 94.3372 505.697 94.3372 505.697" stroke="black" stroke-width="5" stroke-miterlimit="10"/>
<path d="M548.48 497.574C542.975 486.771 548.071 463.129 551.167 454.115" stroke="black" stroke-width="5" stroke-miterlimit="10"/>
<path d="M618.623 465.169C624.462 461.131 630.786 463.518 638.366 461.639C650.402 458.652 663.775 472.429 664.232 486.279C664.837 504.569 599.911 511.326 597.837 500.887C596.609 494.705 600.843 482.854 610.457 473.646C613.544 470.683 618.623 465.169 618.623 465.169Z" fill="white" stroke="black" stroke-width="5" stroke-miterlimit="10"/>
<path d="M618.623 465.169C624.462 461.131 630.786 463.518 638.366 461.639C650.402 458.652 663.775 472.429 664.232 486.279C664.837 504.569 599.911 511.326 597.837 500.887C596.609 494.705 600.843 482.854 610.457 473.646C613.544 470.683 618.623 465.169 618.623 465.169Z" stroke="black" stroke-width="5" stroke-miterlimit="10"/>
<path d="M657.336 494.578C645.909 495.367 624.521 488.831 626.977 474.178C629.74 457.71 620.704 465.135 617.785 466.669C614.865 468.204 609.842 476.539 608.837 475.014C607.83 473.484 614.063 450.545 630.317 446.885C646.567 443.226 655.494 446.466 661.322 454.542C667.15 462.619 669.612 480.255 665.119 489.231C660.626 498.208 657.336 494.578 657.336 494.578Z" fill="#100200" stroke="black" stroke-width="5" stroke-miterlimit="10"/>
<path d="M640.829 452.312C636.606 445.627 631.653 427.228 652.977 427.624C670.49 427.947 667.477 420.887 680.927 415.019C691.74 410.305 703.713 422.214 696.061 445.118C689.092 465.959 677.93 458.233 664.611 452.719C651.289 447.206 640.829 452.312 640.829 452.312Z" fill="#100200" stroke="black" stroke-width="5" stroke-miterlimit="10"/>
<path d="M533.23 484.048C533.23 484.048 620.407 494.228 641.667 492.594C662.923 490.96 735.523 472.771 735.523 472.771C749.22 470.299 760.381 473.468 775.988 466.47C791.593 459.474 789.765 457.699 787.819 456.034C785.875 454.369 746.773 449.188 734.894 457.96C730.984 460.846 730.214 460.832 727.771 461.675L637.862 469.784C593.464 458.774 549.018 451.644 521.419 458.462" fill="white"/>
<path d="M533.23 484.048C533.23 484.048 620.407 494.228 641.667 492.594C662.923 490.96 735.523 472.771 735.523 472.771C749.22 470.299 760.381 473.468 775.988 466.47C791.593 459.474 789.765 457.699 787.819 456.034C785.875 454.369 746.773 449.188 734.894 457.96C730.984 460.846 730.214 460.832 727.771 461.675L637.862 469.784C593.464 458.774 549.018 451.644 521.419 458.462" stroke="black" stroke-width="5" stroke-miterlimit="10"/>
<path d="M533.23 484.048C533.23 484.048 620.407 494.228 641.667 492.594C662.923 490.96 735.523 472.771 735.523 472.771C749.22 470.299 760.381 473.468 775.988 466.47C791.593 459.474 789.765 457.699 787.819 456.034C785.875 454.369 746.773 449.188 734.894 457.96C730.984 460.846 730.214 460.832 727.771 461.675L637.862 469.784C593.464 458.774 549.018 451.644 521.419 458.462" stroke="black" stroke-width="5" stroke-miterlimit="10"/>
<path d="M367.363 738.281C367.363 738.281 378.086 743.856 391.694 736.961Z" fill="white"/>
<path d="M367.363 738.281C367.363 738.281 378.086 743.856 391.694 736.961" stroke="black" stroke-width="5" stroke-miterlimit="10"/>
<path d="M367.363 738.281C367.363 738.281 378.086 743.856 391.694 736.961" stroke="black" stroke-width="5" stroke-miterlimit="10"/>
</svg>
